public/mascots/dropout/bear-yeezus-64x64.svg

<svg xmlns="http://www.w3.org/2000/svg" width="64" height="64" viewBox="0 0 64 64"><defs><linearGradient id="a" x1="0%" x2="100%" y1="0%" y2="100%"><stop offset="0%" style="stop-color:#8b4513"/><stop offset="100%" style="stop-color:#654321"/></linearGradient></defs><circle cx="20" cy="16" r="8" fill="url(#a)"/><circle cx="44" cy="16" r="8" fill="url(#a)"/><ellipse cx="32" cy="24" fill="url(#a)" rx="16" ry="14"/><path fill="#fff" d="M16 20q16-8 32 0 2 8 0 12-16 4-32 0-2-4 0-12"/><path fill="none" stroke="#ddd" d="M16 20q16 8 32 0"/><ellipse cx="32" cy="28" fill="#deb887" rx="8" ry="6"/><ellipse cx="32" cy="26" fill="#333" rx="4" ry="3"/><path stroke="#333" stroke-width="1.5" d="m22 23 6-1M36 22l6 1"/><path fill="#fff" d="M20 36q0-6 12-8 12 2 12 8 0 16-12 20-12-4-12-20"/><path fill="none" stroke="#ccc" d="M24 40q8 4 16 0M22 48q10 2 20 0"/><ellipse cx="18" cy="42" fill="#fff" ry="6"/><ellipse cx="46" cy="42" fill="#fff" ry="6"/></svg>

<svg xmlns="http://www.w3.org/2000/svg" viewBox="0 0 64 64" width="64" height="64">
  <defs>
    <linearGradient id="yeeBearBrown64" x1="0%" y1="0%" x2="100%" y2="100%">
      <stop offset="0%" style="stop-color:#8B4513"/>
      <stop offset="100%" style="stop-color:#654321"/>
    </linearGradient>
  </defs>
  <circle cx="20" cy="16" r="8" fill="url(#yeeBearBrown64)"/>
  <circle cx="44" cy="16" r="8" fill="url(#yeeBearBrown64)"/>
  <ellipse cx="32" cy="24" rx="16" ry="14" fill="url(#yeeBearBrown64)"/>
  <path d="M16 20 Q32 12 48 20 Q50 28 48 32 Q32 36 16 32 Q14 28 16 20Z" fill="#FFF"/>
  <path d="M16 20 Q32 28 48 20" fill="none" stroke="#DDD" stroke-width="1"/>
  <ellipse cx="32" cy="28" rx="8" ry="6" fill="#DEB887"/>
  <ellipse cx="32" cy="26" rx="4" ry="3" fill="#333"/>
  <path d="M22 23 L28 22" stroke="#333" stroke-width="1.5"/>
  <path d="M36 22 L42 23" stroke="#333" stroke-width="1.5"/>
  <path d="M20 36 Q20 30 32 28 Q44 30 44 36 Q44 52 32 56 Q20 52 20 36Z" fill="#FFF"/>
  <path d="M24 40 Q32 44 40 40" fill="none" stroke="#CCC" stroke-width="1"/>
  <path d="M22 48 Q32 50 42 48" fill="none" stroke="#CCC" stroke-width="1"/>
  <ellipse cx="18" cy="42" r="4" ry="6" fill="#FFF"/>
  <ellipse cx="46" cy="42" r="4" ry="6" fill="#FFF"/>
</svg>
